assets/images/results/13.svg

<svg width="705" height="30" viewBox="0 0 705 30" fill="none" xmlns="http://www.w3.org/2000/svg">
<g opacity="0.1">
<rect width="47" height="30" rx="8" fill="white"/>
</g>
<rect x="55" width="47" height="30" rx="8" fill="#7D9D3B"/>
<path d="M78.808 20.098C78.276 20.098 77.7907 20.0327 77.352 19.902C76.9227 19.762 76.5447 19.566 76.218 19.314C75.9007 19.0527 75.6487 18.7447 75.462 18.39L76.47 17.116C76.5633 17.3213 76.7127 17.522 76.918 17.718C77.1233 17.914 77.38 18.0727 77.688 18.194C77.996 18.3153 78.346 18.376 78.738 18.376C79.1207 18.376 79.452 18.32 79.732 18.208C80.012 18.096 80.2267 17.942 80.376 17.746C80.5347 17.5407 80.614 17.2933 80.614 17.004C80.614 16.696 80.516 16.4347 80.32 16.22C80.1333 16.0053 79.8533 15.842 79.48 15.73C79.1067 15.618 78.6493 15.562 78.108 15.562H77.646V14.162H78.136C78.808 14.162 79.3447 14.0453 79.746 13.812C80.1567 13.5787 80.362 13.2473 80.362 12.818C80.362 12.5567 80.292 12.3327 80.152 12.146C80.012 11.95 79.8253 11.8053 79.592 11.712C79.3587 11.6093 79.102 11.558 78.822 11.558C78.3553 11.558 77.94 11.67 77.576 11.894C77.2213 12.1087 76.9507 12.3887 76.764 12.734L75.546 11.376C75.7513 11.0773 76.0313 10.8253 76.386 10.62C76.7407 10.4053 77.1373 10.2373 77.576 10.116C78.024 9.99467 78.486 9.934 78.962 9.934C79.6247 9.934 80.2127 10.0507 80.726 10.284C81.2393 10.508 81.6407 10.816 81.93 11.208C82.2193 11.6 82.364 12.048 82.364 12.552C82.364 12.9253 82.2847 13.266 82.126 13.574C81.9767 13.882 81.762 14.1387 81.482 14.344C81.202 14.5493 80.8707 14.6987 80.488 14.792C80.8987 14.8573 81.258 15.0113 81.566 15.254C81.8833 15.4873 82.126 15.786 82.294 16.15C82.4713 16.5047 82.56 16.892 82.56 17.312C82.56 17.9 82.392 18.3993 82.056 18.81C81.7293 19.2207 81.2813 19.538 80.712 19.762C80.152 19.986 79.5173 20.098 78.808 20.098Z" fill="white"/>
<path d="M110 8C110 3.58172 113.582 0 118 0H148.846C153.264 0 156.846 3.58172 156.846 8V22C156.846 26.4183 153.264 30 148.846 30H118C113.582 30 110 26.4183 110 22V8Z" fill="white" fill-opacity="0.1"/>
<path d="M110 8C110 3.58172 113.582 0 118 0H148.846C153.264 0 156.846 3.58172 156.846 8V22C156.846 26.4183 153.264 30 148.846 30H118C113.582 30 110 26.4183 110 22V8Z" fill="url(#paint0_linear_13_377)"/>
<path d="M164.846 8C164.846 3.58172 168.428 0 172.846 0H203.692C208.111 0 211.692 3.58172 211.692 8V22C211.692 26.4183 208.111 30 203.692 30H172.846C168.428 30 164.846 26.4183 164.846 22V8Z" fill="white" fill-opacity="0.1"/>
<path d="M164.846 8C164.846 3.58172 168.428 0 172.846 0H203.692C208.111 0 211.692 3.58172 211.692 8V22C211.692 26.4183 208.111 30 203.692 30H172.846C168.428 30 164.846 26.4183 164.846 22V8Z" fill="url(#paint1_linear_13_377)"/>
<path d="M219.692 8C219.692 3.58172 223.274 0 227.692 0H258.538C262.957 0 266.538 3.58172 266.538 8V22C266.538 26.4183 262.957 30 258.538 30H227.692C223.274 30 219.692 26.4183 219.692 22V8Z" fill="white" fill-opacity="0.1"/>
<path d="M219.692 8C219.692 3.58172 223.274 0 227.692 0H258.538C262.957 0 266.538 3.58172 266.538 8V22C266.538 26.4183 262.957 30 258.538 30H227.692C223.274 30 219.692 26.4183 219.692 22V8Z" fill="url(#paint2_linear_13_377)"/>
<path d="M274.538 8C274.538 3.58172 278.12 0 282.538 0H313.385C317.803 0 321.385 3.58172 321.385 8V22C321.385 26.4183 317.803 30 313.385 30H282.538C278.12 30 274.538 26.4183 274.538 22V8Z" fill="white" fill-opacity="0.1"/>
<path d="M274.538 8C274.538 3.58172 278.12 0 282.538 0H313.385C317.803 0 321.385 3.58172 321.385 8V22C321.385 26.4183 317.803 30 313.385 30H282.538C278.12 30 274.538 26.4183 274.538 22V8Z" fill="url(#paint3_linear_13_377)"/>
<path d="M329.385 8C329.385 3.58172 332.966 0 337.385 0H368.231C372.649 0 376.231 3.58172 376.231 8V22C376.231 26.4183 372.649 30 368.231 30H337.385C332.966 30 329.385 26.4183 329.385 22V8Z" fill="white" fill-opacity="0.1"/>
<path d="M329.385 8C329.385 3.58172 332.966 0 337.385 0H368.231C372.649 0 376.231 3.58172 376.231 8V22C376.231 26.4183 372.649 30 368.231 30H337.385C332.966 30 329.385 26.4183 329.385 22V8Z" fill="url(#paint4_linear_13_377)"/>
<path d="M384.231 8C384.231 3.58172 387.813 0 392.231 0H423.077C427.495 0 431.077 3.58172 431.077 8V22C431.077 26.4183 427.495 30 423.077 30H392.231C387.812 30 384.231 26.4183 384.231 22V8Z" fill="white" fill-opacity="0.1"/>
<path d="M384.231 8C384.231 3.58172 387.813 0 392.231 0H423.077C427.495 0 431.077 3.58172 431.077 8V22C431.077 26.4183 427.495 30 423.077 30H392.231C387.812 30 384.231 26.4183 384.231 22V8Z" fill="url(#paint5_linear_13_377)"/>
<path d="M439.077 8C439.077 3.58172 442.659 0 447.077 0H477.923C482.341 0 485.923 3.58172 485.923 8V22C485.923 26.4183 482.341 30 477.923 30H447.077C442.659 30 439.077 26.4183 439.077 22V8Z" fill="white" fill-opacity="0.1"/>
<path d="M439.077 8C439.077 3.58172 442.659 0 447.077 0H477.923C482.341 0 485.923 3.58172 485.923 8V22C485.923 26.4183 482.341 30 477.923 30H447.077C442.659 30 439.077 26.4183 439.077 22V8Z" fill="url(#paint6_linear_13_377)"/>
<rect x="493.923" width="47" height="30" rx="8" fill="#38BCE2"/>
<path d="M509.497 20C509.497 19.4307 509.534 18.9313 509.609 18.502C509.684 18.0633 509.8 17.676 509.959 17.34C510.127 16.9947 510.342 16.6913 510.603 16.43C510.864 16.1687 511.186 15.9213 511.569 15.688C511.896 15.5013 512.232 15.3193 512.577 15.142C512.932 14.9647 513.258 14.778 513.557 14.582C513.865 14.386 514.112 14.162 514.299 13.91C514.495 13.658 514.593 13.35 514.593 12.986C514.593 12.706 514.532 12.468 514.411 12.272C514.299 12.0667 514.131 11.908 513.907 11.796C513.692 11.684 513.431 11.628 513.123 11.628C512.768 11.628 512.437 11.6933 512.129 11.824C511.83 11.9453 511.56 12.0993 511.317 12.286C511.084 12.4633 510.883 12.6407 510.715 12.818L509.539 11.586C509.67 11.4367 509.847 11.2687 510.071 11.082C510.304 10.8953 510.58 10.7133 510.897 10.536C511.224 10.3587 511.592 10.214 512.003 10.102C512.414 9.99 512.866 9.934 513.361 9.934C514.089 9.934 514.7 10.0647 515.195 10.326C515.69 10.578 516.063 10.928 516.315 11.376C516.576 11.8147 516.707 12.3233 516.707 12.902C516.707 13.322 516.637 13.6953 516.497 14.022C516.366 14.3393 516.184 14.6193 515.951 14.862C515.718 15.1047 515.456 15.324 515.167 15.52C514.878 15.7067 514.579 15.8887 514.271 16.066C513.786 16.3273 513.394 16.556 513.095 16.752C512.796 16.948 512.558 17.13 512.381 17.298C512.213 17.466 512.082 17.634 511.989 17.802C511.905 17.9607 511.83 18.1287 511.765 18.306H516.721V20H509.497ZM522.425 11.768H517.917V10.06H525.393L520.451 20H518.323L522.425 11.768Z" fill="white"/>
<g opacity="0.1">
<rect x="548.923" width="47" height="30" rx="8" fill="white"/>
</g>
<g opacity="0.1">
<rect x="603.923" width="47" height="30" rx="8" fill="white"/>
</g>
<g opacity="0.1">
<rect x="658.923" width="46" height="30" rx="8" fill="white"/>
</g>
<defs>
<linearGradient id="paint0_linear_13_377" x1="110" y1="15" x2="485.923" y2="15" gradientUnits="userSpaceOnUse">
<stop stop-color="#7D9D3B"/>
<stop offset="1" stop-color="#38BCE2"/>
</linearGradient>
<linearGradient id="paint1_linear_13_377" x1="110" y1="15" x2="485.923" y2="15" gradientUnits="userSpaceOnUse">
<stop stop-color="#7D9D3B"/>
<stop offset="1" stop-color="#38BCE2"/>
</linearGradient>
<linearGradient id="paint2_linear_13_377" x1="110" y1="15" x2="485.923" y2="15" gradientUnits="userSpaceOnUse">
<stop stop-color="#7D9D3B"/>
<stop offset="1" stop-color="#38BCE2"/>
</linearGradient>
<linearGradient id="paint3_linear_13_377" x1="110" y1="15" x2="485.923" y2="15" gradientUnits="userSpaceOnUse">
<stop stop-color="#7D9D3B"/>
<stop offset="1" stop-color="#38BCE2"/>
</linearGradient>
<linearGradient id="paint4_linear_13_377" x1="110" y1="15" x2="485.923" y2="15" gradientUnits="userSpaceOnUse">
<stop stop-color="#7D9D3B"/>
<stop offset="1" stop-color="#38BCE2"/>
</linearGradient>
<linearGradient id="paint5_linear_13_377" x1="110" y1="15" x2="485.923" y2="15" gradientUnits="userSpaceOnUse">
<stop stop-color="#7D9D3B"/>
<stop offset="1" stop-color="#38BCE2"/>
</linearGradient>
<linearGradient id="paint6_linear_13_377" x1="110" y1="15" x2="485.923" y2="15" gradientUnits="userSpaceOnUse">
<stop stop-color="#7D9D3B"/>
<stop offset="1" stop-color="#38BCE2"/>
</linearGradient>
</defs>
</svg>

<svg xmlns="http://www.w3.org/2000/svg" width="705" height="30" fill="none" viewBox="0 0 705 30"><rect width="47" height="30" fill="#fff" opacity="0.1" rx="8"/><rect width="47" height="30" x="55" fill="#7D9D3B" rx="8"/><path fill="#fff" d="M78.808 20.098a5 5 0 0 1-1.456-.196 3.7 3.7 0 0 1-1.134-.588 3 3 0 0 1-.756-.924l1.008-1.274q.14.308.448.602t.77.476 1.05.182q.574 0 .994-.168t.644-.462q.238-.308.238-.742 0-.462-.294-.784-.28-.322-.84-.49t-1.372-.168h-.462v-1.4h.49q1.008 0 1.61-.35.615-.35.616-.994 0-.391-.21-.672a1.24 1.24 0 0 0-.56-.434 1.9 1.9 0 0 0-.77-.154q-.7 0-1.246.336a2.2 2.2 0 0 0-.812.84l-1.218-1.358q.307-.448.84-.756a4.7 4.7 0 0 1 1.19-.504q.672-.182 1.386-.182.994 0 1.764.35.77.336 1.204.924t.434 1.344q0 .56-.238 1.022-.225.462-.644.77a2.8 2.8 0 0 1-.994.448q.615.098 1.078.462.476.35.728.896.266.532.266 1.162 0 .882-.504 1.498-.49.616-1.344.952-.84.336-1.904.336"/><path fill="#fff" fill-opacity="0.1" d="M110 8a8 8 0 0 1 8-8h30.846a8 8 0 0 1 8 8v14a8 8 0 0 1-8 8H118a8 8 0 0 1-8-8z"/><path fill="url(#a)" d="M110 8a8 8 0 0 1 8-8h30.846a8 8 0 0 1 8 8v14a8 8 0 0 1-8 8H118a8 8 0 0 1-8-8z"/><path fill="#fff" fill-opacity="0.1" d="M164.846 8a8 8 0 0 1 8-8h30.846a8 8 0 0 1 8 8v14a8 8 0 0 1-8 8h-30.846a8 8 0 0 1-8-8z"/><path fill="url(#b)" d="M164.846 8a8 8 0 0 1 8-8h30.846a8 8 0 0 1 8 8v14a8 8 0 0 1-8 8h-30.846a8 8 0 0 1-8-8z"/><path fill="#fff" fill-opacity="0.1" d="M219.692 8a8 8 0 0 1 8-8h30.846a8 8 0 0 1 8 8v14a8 8 0 0 1-8 8h-30.846a8 8 0 0 1-8-8z"/><path fill="url(#c)" d="M219.692 8a8 8 0 0 1 8-8h30.846a8 8 0 0 1 8 8v14a8 8 0 0 1-8 8h-30.846a8 8 0 0 1-8-8z"/><path fill="#fff" fill-opacity="0.1" d="M274.538 8a8 8 0 0 1 8-8h30.847a8 8 0 0 1 8 8v14a8 8 0 0 1-8 8h-30.847a8 8 0 0 1-8-8z"/><path fill="url(#d)" d="M274.538 8a8 8 0 0 1 8-8h30.847a8 8 0 0 1 8 8v14a8 8 0 0 1-8 8h-30.847a8 8 0 0 1-8-8z"/><path fill="#fff" fill-opacity="0.1" d="M329.385 8a8 8 0 0 1 8-8h30.846a8 8 0 0 1 8 8v14a8 8 0 0 1-8 8h-30.846a8 8 0 0 1-8-8z"/><path fill="url(#e)" d="M329.385 8a8 8 0 0 1 8-8h30.846a8 8 0 0 1 8 8v14a8 8 0 0 1-8 8h-30.846a8 8 0 0 1-8-8z"/><path fill="#fff" fill-opacity="0.1" d="M384.231 8a8 8 0 0 1 8-8h30.846a8 8 0 0 1 8 8v14a8 8 0 0 1-8 8h-30.846a8 8 0 0 1-8-8z"/><path fill="url(#f)" d="M384.231 8a8 8 0 0 1 8-8h30.846a8 8 0 0 1 8 8v14a8 8 0 0 1-8 8h-30.846a8 8 0 0 1-8-8z"/><path fill="#fff" fill-opacity="0.1" d="M439.077 8a8 8 0 0 1 8-8h30.846a8 8 0 0 1 8 8v14a8 8 0 0 1-8 8h-30.846a8 8 0 0 1-8-8z"/><path fill="url(#g)" d="M439.077 8a8 8 0 0 1 8-8h30.846a8 8 0 0 1 8 8v14a8 8 0 0 1-8 8h-30.846a8 8 0 0 1-8-8z"/><rect width="47" height="30" x="493.923" fill="#38BCE2" rx="8"/><path fill="#fff" d="M509.497 20q0-.855.112-1.498.112-.658.35-1.162.252-.518.644-.91a5 5 0 0 1 .966-.742q.49-.28 1.008-.546.532-.266.98-.56a2.7 2.7 0 0 0 .742-.672q.294-.378.294-.924 0-.42-.182-.714a1.13 1.13 0 0 0-.504-.476 1.7 1.7 0 0 0-.784-.168q-.532 0-.994.196a3.5 3.5 0 0 0-.812.462 5 5 0 0 0-.602.532l-1.176-1.232q.196-.224.532-.504a6 6 0 0 1 .826-.546 5.2 5.2 0 0 1 1.106-.434 5.2 5.2 0 0 1 1.358-.168q1.092 0 1.834.392.742.378 1.12 1.05.392.658.392 1.526 0 .63-.21 1.12a2.7 2.7 0 0 1-.546.84 5 5 0 0 1-.784.658q-.434.28-.896.546-.727.392-1.176.686a5 5 0 0 0-.714.546 2.3 2.3 0 0 0-.392.504 4 4 0 0 0-.224.504h4.956V20zm12.928-8.232h-4.508V10.06h7.476L520.451 20h-2.128z"/><rect width="47" height="30" x="548.923" fill="#fff" opacity="0.1" rx="8"/><rect width="47" height="30" x="603.923" fill="#fff" opacity="0.1" rx="8"/><rect width="46" height="30" x="658.923" fill="#fff" opacity="0.1" rx="8"/><defs><linearGradient id="a" x1="110" x2="485.923" y1="15" y2="15" gradientUnits="userSpaceOnUse"><stop stop-color="#7D9D3B"/><stop offset="1" stop-color="#38BCE2"/></linearGradient><linearGradient id="b" x1="110" x2="485.923" y1="15" y2="15" gradientUnits="userSpaceOnUse"><stop stop-color="#7D9D3B"/><stop offset="1" stop-color="#38BCE2"/></linearGradient><linearGradient id="c" x1="110" x2="485.923" y1="15" y2="15" gradientUnits="userSpaceOnUse"><stop stop-color="#7D9D3B"/><stop offset="1" stop-color="#38BCE2"/></linearGradient><linearGradient id="d" x1="110" x2="485.923" y1="15" y2="15" gradientUnits="userSpaceOnUse"><stop stop-color="#7D9D3B"/><stop offset="1" stop-color="#38BCE2"/></linearGradient><linearGradient id="e" x1="110" x2="485.923" y1="15" y2="15" gradientUnits="userSpaceOnUse"><stop stop-color="#7D9D3B"/><stop offset="1" stop-color="#38BCE2"/></linearGradient><linearGradient id="f" x1="110" x2="485.923" y1="15" y2="15" gradientUnits="userSpaceOnUse"><stop stop-color="#7D9D3B"/><stop offset="1" stop-color="#38BCE2"/></linearGradient><linearGradient id="g" x1="110" x2="485.923" y1="15" y2="15" gradientUnits="userSpaceOnUse"><stop stop-color="#7D9D3B"/><stop offset="1" stop-color="#38BCE2"/></linearGradient></defs></svg>
